X:1
T:Title
%%score { ( 1 3 ) | ( 2 4 ) }
L:1/8
M:6/8
K:D
V:1 treble nm="Grand Piano"
V:3 treble 
V:2 bass 
V:4 bass 
V:1
 z3 z2[Q:1/4=78] D/E/ | FFF [FA][EG]F | BBB A2 z/ E/ | FFF BAF | [CE]3- [CE]2 D/E/ | FFF GGG | %6
[M:5/8] AAA B2 |[M:1/8] B |[M:3/4] AA d[Gc] [GB][Gc] |[M:5/8] [Fd]-[Fd]- [Fd]3 |[M:1/8] A/A/ | %11
[M:3/4] [FA]-[DF-A-] [DF-A-][DFA] FB | [FA]-[DF-A-] [DF-A-] [DFA]2 [FA] | [FA]F DB AF | %14
 [CE]4- [CE][CE]/[CE]/ | FF FG GG |[M:7/8] AAA B3 B[Q:1/4=77] | %17
[M:13/16] AFG[DF][DF]3/2[CE][Q:1/4=76][Q:1/4=75][Q:1/4=73][Q:1/4=72][Q:1/4=71][Q:1/4=70][Q:1/4=69][Q:1/4=68][Q:1/4=67][Q:1/4=65] | %18
[M:5/8] D-D- D3[Q:1/4=64][Q:1/4=63][Q:1/4=62][Q:1/4=61][Q:1/4=60] |] %19
V:2
 z3 z2 [D,F,]/[D,G,D]/ | [D,A,D][D,A,D][D,A,D] [D,D][D,A,][D,A,D] | %2
 [G,D][G,D][G,D] [D,F,D]2 F,/G,/ | [D,A,D][D,A,D][D,A,D] [G,D][F,A,D][D,A,D] | %4
 [A,,A,]3- [A,,A,]2 [D,F,]/[D,G,D]/ | [D,A,D][D,A,D][D,A,D] [E,A,C][E,A,C][E,A,C] | %6
[M:5/8] [F,A,D][F,A,D][F,A,D][K:treble] [G,D]2 |[M:1/8] [^G,D=F] | %8
[M:3/4] [A,DF][A,DF] [A,DF][K:bass][A,,A,] [A,,A,][A,,A,] |[M:5/8] [D,A,]-[D,A,]- [D,A,]3 | %10
[M:1/8][K:treble] F/F/ |[M:3/4][K:bass] D,D, D,D, DG | D,D, D, D,2 [D,D] | %13
 [D,D][D,A,D] [D,F,][G,D] [F,A,D][D,A,D] | [A,,A,]4- [A,,A,][A,,A,]/[A,,A,]/ | %15
 [D,A,D][D,A,D] [D,A,D][E,A,C] [E,A,C][E,A,C] | %16
[M:7/8] [F,A,D][F,A,D][F,A,D][K:treble] [G,D]3 [^G,D=F] | %17
[M:13/16] [A,F][A,D][A,E][K:bass][A,,A,][A,,A,]3/2[A,,G,] |[M:5/8] [D,F,]-[D,F,]- [D,F,]3 |] %19
V:3
 x6 | x6 | z3 z2 D | x6 | x6 | x6 |[M:5/8] x5 |[M:1/8] x |[M:3/4] x6 |[M:5/8] x5 |[M:1/8] x | %11
[M:3/4] .D2 z2 z2 | .D2 z2 z2 | x6 | x6 | x6 |[M:7/8] x7 |[M:13/16] x13/2 |[M:5/8] x5 |] %19
V:4
 x6 | x6 | z3 z2 D, | x6 | x6 | x6 |[M:5/8] x3[K:treble] x2 |[M:1/8] x |[M:3/4] x3[K:bass] x3 | %9
[M:5/8] x5 |[M:1/8][K:treble] x |[M:3/4][K:bass] x6 | x6 | x6 | x6 | x6 |[M:7/8] x3[K:treble] x4 | %17
[M:13/16] x3[K:bass] x7/2 |[M:5/8] x5 |] %19

